src/helpers/heroicons/outline/gift-top.svg

<svg width="24" height="24" viewBox="0 0 24 24" fill="none" xmlns="http://www.w3.org/2000/svg">
<path d="M12 3.75V20.25M2.25 12H21.75M6.375 17.25C9.06739 17.25 11.25 15.0674 11.25 12.375V12M17.625 17.25C14.9326 17.25 12.75 15.0674 12.75 12.375V12M3.75 20.25H20.25C21.0784 20.25 21.75 19.5784 21.75 18.75V5.25C21.75 4.42157 21.0784 3.75 20.25 3.75H3.75C2.92157 3.75 2.25 4.42157 2.25 5.25V18.75C2.25 19.5784 2.92157 20.25 3.75 20.25ZM16.3713 10.8107C14.9623 12.2197 12.1286 11.8714 12.1286 11.8714C12.1286 11.8714 11.7803 9.03772 13.1893 7.62871C14.068 6.75003 15.4926 6.75003 16.3713 7.62871C17.2499 8.50739 17.2499 9.93201 16.3713 10.8107ZM10.773 7.62874C12.182 9.03775 11.8336 11.8714 11.8336 11.8714C11.8336 11.8714 9 12.2197 7.59099 10.8107C6.71231 9.93204 6.71231 8.50742 7.59099 7.62874C8.46967 6.75006 9.89429 6.75006 10.773 7.62874Z"  stroke-width="1.5" stroke-linecap="round" stroke-linejoin="round"/>
</svg>

<svg xmlns="http://www.w3.org/2000/svg" fill="none" viewBox="0 0 24 24" stroke-width="1.5" stroke="currentColor" aria-hidden="true" data-slot="icon">
  <path stroke-linecap="round" stroke-linejoin="round" d="M12 3.75v16.5M2.25 12h19.5M6.375 17.25a4.875 4.875 0 0 0 4.875-4.875V12m6.375 5.25a4.875 4.875 0 0 1-4.875-4.875V12m-9 8.25h16.5a1.5 1.5 0 0 0 1.5-1.5V5.25a1.5 1.5 0 0 0-1.5-1.5H3.75a1.5 1.5 0 0 0-1.5 1.5v13.5a1.5 1.5 0 0 0 1.5 1.5Zm12.621-9.44c-1.409 1.41-4.242 1.061-4.242 1.061s-.349-2.833 1.06-4.242a2.25 2.25 0 0 1 3.182 3.182ZM10.773 7.63c1.409 1.409 1.06 4.242 1.06 4.242S9 12.22 7.592 10.811a2.25 2.25 0 1 1 3.182-3.182Z"/>
</svg>
